img/facebook.svg

<svg width="48" height="48" viewBox="0 0 48 48" fill="none" xmlns="http://www.w3.org/2000/svg">
<path d="M0 24C0 10.7452 10.7452 0 24 0C37.2548 0 48 10.7452 48 24C48 37.2548 37.2548 48 24 48C10.7452 48 0 37.2548 0 24Z" fill="#F6F6F8"/>
<path fill-rule="evenodd" clip-rule="evenodd" d="M25.7136 36V23.9986H29.0266L29.4656 19.8628H25.7136L25.7193 17.7929C25.7193 16.7142 25.8218 16.1362 27.371 16.1362H29.4421V12H26.1288C22.1488 12 20.748 14.0063 20.748 17.3802V19.8633H18.2672V23.9991H20.748V36H25.7136Z" fill="#1C1C33"/>
</svg>

<svg width="48" height="48" fill="none" xmlns="http://www.w3.org/2000/svg"><path d="M0 24C0 10.745 10.745 0 24 0s24 10.745 24 24-10.745 24-24 24S0 37.255 0 24z" fill="#F6F6F8"/><path fill-rule="evenodd" clip-rule="evenodd" d="M25.714 36V23.999h3.313l.439-4.136h-3.752l.005-2.07c0-1.079.103-1.657 1.652-1.657h2.071V12H26.13c-3.98 0-5.381 2.006-5.381 5.38v2.483h-2.48V24h2.48v12h4.966z" fill="#1C1C33"/></svg>
